X: 7246
T: Clans
R: reel
M: 4/4
K: Amixolydian
|f2f/f/e{g}ef(B2|B2){c}B{c}B fe{g}dc|B>c d3 e{g}dc|B ({B}c2c2) (f3|
f2)f/f/e{g}ef(B2|B2){c}B{c}B fe{g}dc|B>c d3 e{g}dc|B {B}c3 c{e}c B2|
A2 ({B}B4B2)|

